X:1
T:Resonet in laudibus
T:Resonet in laudibus
T:Jacobus Gallus (1550-1591)
C:Jacobus Gallus (1550-1591)
%%score [ 1 2 3 4 ]
L:1/8
M:3/4
K:F
V:1 treble nm="Soprano"
V:2 treble nm="Alto"
V:3 treble-8 nm="Tenor"
V:4 bass nm="Bass"
V:1
"^kor I" c4 A2 | F4 A2 | c4 d2 | c6 ||"^kor II" c4 A2 | F4 A2 | c4 d2 | c6 ||"^tutti" B4 B2 | %9
w: Re- so-|net in|lau- di-|bus|cum ju-|cun- dis|plau- si-|bus|Si- on|
 B4 c2 | B4 A2 | G4 A2 | c4 A2 | F4 A2 | G4 ^F2 | G4 A2 | F6 | F4 z2 | ^F4 G2 | A4 B2 | A4 G2 | %21
w: cum fi-|de- li-|bus: ap-|pa- ru-|it quem|ge- nu-|it Ma-|ri-|a.|Sunt im-|ple- ta|quae prae-|
 G4 A2 | F4 F2 | F6 ||"^kor I" c6 | A6 | c6 | A6 ||"^kor II" ^F4 G2 | A4 !courtesy!_B2 | A4 G2 | %31
w: di- xit|Ga- bri-|el.|E-|ja,|e-|ja,|Vir- go|De- um|ge- nu-|
 A6 ||"^tutti" ^F4 G2 | A4 !courtesy!_B2 | c4 B2 | A4 B2 | G4 G2 | A4 z2 | ^F4 G2 | %39
w: it|quod di-|vi- na|vo- lu-|it cle-|men- ti-|a,|quod di-|
 A4 !courtesy!_B2 | c4 B2 | A4 B2 | G4 G2 | A6 ||"^kor I" c4 c2 | c4 c2 | f4 e2 | d4 c2 | f4 e2 | %49
w: vi- na|vo- lu-|it cle-|men- ti-|a.|Ho- di-|e ap-|pa- ru-|it, ap-|pa- ru-|
 d4 c2 | c4 =B2 | c6 ||"^tutti" ^F4 G2 | A4 !courtesy!_B2 | c4 B2 | A4 B2 | G4 G2 | A4 z2 | %58
w: it in|Is- ra-|el|ex Ma-|ri- a|Vir- gi-|ne est|na- tus|rex,|
 ^F4 G2 | A4 !courtesy!_B2 | c4 B2 | A4 B2 | G4 G2 | A6 |] %64
w: ex Ma-|ri- a|Vir- gi-|ne est|na- tus|rex.|
V:2
 F4 F2 | C4 F2 | A4 B2 | A6 || F4 F2 | C4 F2 | A4 B2 | A6 || G4 G2 | G4 G2 | G4 F2 | %11
w: Re- so-|net in|lau- di-|bus|cum ju-|cun- dis|plau- si-|bus|Si- on|cum fi-|de- li-|
 !courtesy!=E4 F2 | G4 F2 | A4 F2 | D4 D2 | DC DE !courtesy!=F2 | C2 D4 | C4 z2 | D4 D2 | F4 F2 | %20
w: bus: ap-|pa- ru-|it quem|ge- nu-|it _ _ _ _|Ma- ri-|a.|Sunt im-|ple- ta|
 F4 D2 | E4 F2 | C4 D2 | C6 || A4 G2 | F4 E2 | A4 G2 | F4 E2 || D4 D2 | =F4 F2 | F4 D2 | F6 || %32
w: quae prae-|di- xit|Ga- bri-|el.|E- ja,|e- ja,|e- ja,|e- ja,|Vir- go|De- um|ge- nu-|it|
 D4 D2 | !courtesy!=F4 F2 | A4 G2 | F4 F2 | E4 E2 | F4 z2 | D4 D2 | !courtesy!=F4 F2 | A4 G2 | %41
w: quod di-|vi- na|vo- lu-|it cle-|men- ti-|a,|quod di-|vi- na|vo- lu-|
 F4 F2 | E4 E2 | F6 || A4 G2 | A4 A2 | A4 A2 | A4 A2 | A4 c2 | B4 G2 | A2 G4 | G6 || D4 D2 | %53
w: it cle-|men- ti-|a.|Ho- di-|e ap-|pa- ru-|it, ap-|pa- ru-|it in|Is- ra-|el|ex Ma-|
 !courtesy!=F4 F2 | A4 G2 | F4 F2 | E4 E2 | F4 z2 | D4 D2 | !courtesy!=F4 F2 | A4 G2 | F4 F2 | %62
w: ri- a|Vir- gi-|ne est|na- tus|rex,|ex Ma-|ri- a|Vir- gi-|ne est|
 E4 E2 | F6 |] %64
w: na- tus|rex.|
V:3
 c4 c2 | A4 d2 | e2 f2 f2 | f6 || c4 c2 | A4 d2 | e2 e2 f2 | f6 || d4 d2 | _e4 e2 | _e4 c2 | %11
w: Re- so-|net in|lau- * di-|bus|cum ju-|cun- dis|plau- * si-|bus|Si- on|cum fi-|de- li-|
 c4 c2 | !courtesy!=e4 f2 | c4 c2 | B4 A2 | =B4 c2 | AG FA !courtesy!_B2 | A4 z2 | A4 =B2 | c4 d2 | %20
w: bus: ap-|pa- ru-|it quem|ge- nu-|it Ma-|ri- * * * *|a.|Sunt im-|ple- ta|
 c4 =B2 | c4 c2 | A4 !courtesy!_B2 | A6 || f2 ed e2 | cd c=B c2 | f2 ed e2 | cd c=B c2 || A4 =B2 | %29
w: quae prae-|di- xit|Ga- bri-|el.|E- * * ja,|e- * * * ja,|e- * * ja,|e- * * * ja,|Vir- go|
 c4 d2 | c4 =B2 | d6 || A4 =B2 | c4 d2 | f4 d2 | d4 d2 | c4 c2 | c4 z2 | A4 =B2 | c4 d2 | f4 d2 | %41
w: De- um|ge- nu-|it|quod di-|vi- na|vo- lu-|it cle-|men- ti-|a,|quod di-|vi- na|vo- lu-|
 d4 d2 | c4 c2 | c6 || f4 e2 | f4 c2 | d4 c2 | f4 e2 | d4 c2 | f4 e2 | f2 d4 | c6 || A4 =B2 | %53
w: it cle-|men- ti-|a.|Ho- di-|e ap-|pa- ru-|it, ap-|pa- ru-|it in|Is- ra-|el|ex Ma-|
 c4 d2 | f4 d2 | d4 d2 | c4 c2 | c4 z2 | A4 =B2 | c4 d2 | f4 d2 | d4 d2 | c4 c2 | c6 |] %64
w: ri- a|Vir- gi-|ne est|na- tus|rex,|ex Ma-|ri- a|Vir- gi-|ne est|na- tus|rex.|
V:4
 F,4 F,2 | F,4 D,2 | A,2 F,2 B,2 | F,6 || F,4 F,2 | F,4 D,2 | A,2 F,2 B,2 | F,6 || G,4 G,2 | %9
w: Re- so-|net in|lau- * di-|bus|cum ju-|cun- dis|plau- * si-|bus|Si- on|
 _E,4 C,2 | _E,4 F,2 | C,4 F,2 | C4 F,2 | F,4 F,2 | G,4 D,2 | G,4 F,2 | F,E, D,C, B,,2 | F,4 z2 | %18
w: cum fi-|de- li-|bus: ap-|pa- ru-|it quem|ge- nu-|it Ma-|ri- * * * *|a.|
 D,4 G,2 | F,4 !courtesy!_B,,2 | F,4 G,2 | C,4 F,2 | F,4 B,,2 | F,6 || F,G, A,B, C2 | %25
w: Sunt im-|ple- ta|quae prae-|di- xit|Ga- bri-|el.|E- * * * ja,|
 F,D, F,G, A,2 | F,G, A,B, C2 | F,D, F,G, A,2 || D,4 G,2 | F,4 !courtesy!_B,,2 | F,4 G,2 | D,6 || %32
w: e- * * * ja,|e- * * * ja,|e- * * * ja,|Vir- go|De- um|ge- nu-|it|
 D,4 G,2 | F,4 !courtesy!_B,,2 | F,4 G,2 | D,4 B,,2 | C,4 C,2 | F,4 z2 | D,4 G,2 | %39
w: quod di-|vi- na|vo- lu-|it cle-|men- ti-|a,|quod di-|
 F,4 !courtesy!_B,,2 | F,4 G,2 | D,4 B,,2 | C,4 C,2 | F,6 || F,4 C2 | F,4 F,2 | D,4 A,2 | D4 A,2 | %48
w: vi- na|vo- lu-|it cle-|men- ti-|a.|Ho- di-|e ap-|pa- ru-|it, ap-|
 D,4 A,2 | B,4 C2 | F,2 G,4 | C,6 || D,4 G,2 | F,4 !courtesy!_B,,2 | F,4 G,2 | D,4 B,,2 | C,4 C,2 | %57
w: pa- ru-|it in|Is- ra-|el|ex Ma-|ri- a|Vir- gi-|ne est|na- tus|
 F,4 z2 | D,4 G,2 | F,4 !courtesy!_B,,2 | F,4 G,2 | D,4 B,,2 | C,4 C,2 | F,6 |] %64
w: rex,|ex Ma-|ri- a|Vir- gi-|ne est|na- tus|rex.|

